src/assets/shelter.svg

<?xml version="1.0" encoding="UTF-8"?>
<!-- Generator: Adobe Illustrator 19.0.0, SVG Export Plug-In . SVG Version: 6.00 Build 0)  -->
<svg width="244.50951" height="231.94104" inkscapeVersion="1.1.1 (3bf5ae0d25, 2021-09-20)" sodipodiDocname="shelter.svg" version="1.1" viewBox="0 0 244.5095 231.94103" xmlSpace="preserve" xmlns="http://www.w3.org/2000/svg" xmlnsSvg="http://www.w3.org/2000/svg">
 <sodipodiNamedview bordercolor="#666666" borderopacity="1.0" inkscapeCurrent-layer="g8" inkscapeCx="122.16037" inkscapeCy="64.035677" inkscapePagecheckerboard="0" inkscapePageopacity="0.0" inkscapePageshadow="2" inkscapeWindow-height="1050" inkscapeWindow-maximized="1" inkscapeWindow-width="1856" inkscapeWindow-x="0" inkscapeWindow-y="0" inkscapeZoom="2.0301183" pagecolor="#ffffff" showgrid="false"/>
 <g transform="translate(-45.715395,-103.99995)">
  <path transform="translate(45.715395,103.99995)" d="m91.650391 0c-33.163 0.096-50.217141 39.849937-27.619141 63.960938 0.09 0.104 0.180391 0.204687 0.275391 0.304687l11.138671 11.578125c-29.983851 18.652012-62.79925 39.06475-71.9062495 44.73047-3.517 2.188-4.59425 6.81308-2.40625 10.33008 2.19 3.521 6.817125 4.59225 10.3281255 2.40625l12.796874-7.96094v99.0918c0 4.143 3.358001 7.5 7.5 7.5h67.978516c4.142002 0 7.500002-3.357 7.500002-7.5v-52.25977h30.03711v52.25977c0 4.143 3.358 7.5 7.5 7.5h67.97656c4.142 0 7.5-3.357 7.5-7.5v-99.0918c13.856 8.62 13.96895 9.09375 16.75195 9.09375 7.507-1e-3 10.37171-9.88814 3.97071-13.86914-6.97343-4.33795-41.06749-25.546508-71.90625-44.73047l11.13867-11.578125c0.097-0.102 0.19125-0.204547 0.28125-0.310547 22.564-24.08 5.569-63.859078-27.625-63.955078-12.594-0.019-23.62347 5.9703594-30.60547 15.318359-7.029-9.4119996-18.07709-15.318359-30.496094-15.318359zm30.741739 60.38706c38.51089 28.900334-2.56245-1.59949 35.05003 26.285605l-20.13294 20.134335c-9.96885 9.598-18.50476 9.81495-29.1848-0.0628l-21.435786-20.457762c38.055986-27.497941-0.886353 0.696394 35.703496-25.899378z"/>
 </g>
</svg>

<?xml version="1.0" encoding="UTF-8" standalone="no"?>
<!-- Generator: Adobe Illustrator 19.0.0, SVG Export Plug-In . SVG Version: 6.00 Build 0)  -->

<svg
   version="1.1"
   id="Layer_1"
   x="0px"
   y="0px"
   viewBox="0 0 244.5095 231.94103"
   xmlSpace="preserve"
   sodipodiDocname="shelter.svg"
   width="244.50951"
   height="231.94104"
   inkscapeVersion="1.1.1 (3bf5ae0d25, 2021-09-20)"
   xmlnsInkscape="http://www.inkscape.org/namespaces/inkscape"
   xmlnsSodipodi="http://sodipodi.sourceforge.net/DTD/sodipodi-0.dtd"
   xmlns="http://www.w3.org/2000/svg"
   xmlnsSvg="http://www.w3.org/2000/svg"><defs
   id="defs45">
			
			
		</defs><sodipodiNamedview
   id="namedview43"
   pagecolor="#ffffff"
   bordercolor="#666666"
   borderopacity="1.0"
   inkscapePageshadow="2"
   inkscapePageopacity="0.0"
   inkscapePagecheckerboard="0"
   showgrid="false"
   inkscapeZoom="2.0301183"
   inkscapeCx="122.16037"
   inkscapeCy="64.035677"
   inkscapeWindow-width="1856"
   inkscapeWindow-height="1050"
   inkscapeWindow-x="0"
   inkscapeWindow-y="0"
   inkscapeWindow-maximized="1"
   inkscapeCurrent-layer="g8" />
<g
   id="g10"
   transform="translate(-45.715395,-103.99995)">
	<g
   id="g8">
		<path
   id="path895"
   d="M 91.650391 0 C 58.487391 0.096 41.43325 39.849937 64.03125 63.960938 C 64.12125 64.064938 64.211641 64.165625 64.306641 64.265625 L 75.445312 75.84375 C 45.461461 94.495762 12.646062 114.9085 3.5390625 120.57422 C 0.0220625 122.76222 -1.0551875 127.3873 1.1328125 130.9043 C 3.3228125 134.4253 7.9499375 135.49655 11.460938 133.31055 L 24.257812 125.34961 L 24.257812 224.44141 C 24.257812 228.58441 27.615813 231.94141 31.757812 231.94141 L 99.736328 231.94141 C 103.87833 231.94141 107.23633 228.58441 107.23633 224.44141 L 107.23633 172.18164 L 137.27344 172.18164 L 137.27344 224.44141 C 137.27344 228.58441 140.63144 231.94141 144.77344 231.94141 L 212.75 231.94141 C 216.892 231.94141 220.25 228.58441 220.25 224.44141 L 220.25 125.34961 C 234.106 133.96961 234.21895 134.44336 237.00195 134.44336 C 244.50895 134.44236 247.37366 124.55522 240.97266 120.57422 C 233.99923 116.23627 199.90517 95.027712 169.06641 75.84375 L 180.20508 64.265625 C 180.30208 64.163625 180.39633 64.061078 180.48633 63.955078 C 203.05033 39.875078 186.05533 0.096 152.86133 0 C 140.26733 -0.019 129.23786 5.9703594 122.25586 15.318359 C 115.22686 5.9063594 104.17877 0 91.759766 0 L 91.650391 0 z M 91.693359 15 L 91.759766 15 C 104.47177 15 114.75781 25.287094 114.75781 37.996094 C 114.75781 42.139094 118.11581 45.496094 122.25781 45.496094 C 126.39981 45.496094 129.75781 42.139094 129.75781 37.996094 C 129.75781 25.283094 140.04391 15 152.75391 15 L 152.82227 15 C 173.00127 15.059 183.28405 39.326906 169.37305 53.878906 C 169.29605 53.958906 169.22144 54.040047 169.14844 54.123047 L 156.04492 67.742188 C 145.02178 60.884971 129.07051 50.962783 126.2168 49.1875 C 123.7918 47.6775 120.71992 47.6775 118.29492 49.1875 C 114.59325 51.490061 99.348686 60.974161 88.46875 67.742188 L 75.361328 54.117188 C 75.290328 54.037187 75.218531 53.958859 75.144531 53.880859 C 61.213531 39.308859 71.549359 15.059 91.693359 15 z M 122.25586 64.390625 C 124.95967 66.072728 136.53858 73.275008 145.41211 78.794922 L 127.60156 97.308594 C 124.67856 100.34659 119.83406 100.34359 116.91406 97.308594 L 99.101562 78.792969 L 122.25586 64.390625 z M 86.080078 86.894531 L 106.10352 107.70703 C 114.93552 116.88703 129.5822 116.88298 138.4082 107.70898 L 158.43359 86.894531 C 179.07949 99.737544 200.51401 113.07206 205.25195 116.01953 L 205.25195 189.22656 L 152.27539 189.22656 L 152.27539 164.68359 C 152.27539 160.54059 148.91739 157.18359 144.77539 157.18359 L 99.738281 157.18359 C 95.596281 157.18359 92.238281 160.54059 92.238281 164.68359 L 92.238281 189.22656 L 39.259766 189.22656 L 39.259766 116.01953 L 86.080078 86.894531 z M 39.259766 204.22656 L 92.238281 204.22656 L 92.238281 216.94141 L 39.259766 216.94141 L 39.259766 204.22656 z M 152.27539 204.22656 L 205.25195 204.22656 L 205.25195 216.94141 L 152.27539 216.94141 L 152.27539 204.22656 z "
   transform="translate(45.715395,103.99995)" />
	</g>
</g>
<g
   id="g12"
   transform="translate(-45.715395,-103.99995)">
</g>
<g
   id="g14"
   transform="translate(-45.715395,-103.99995)">
</g>
<g
   id="g16"
   transform="translate(-45.715395,-103.99995)">
</g>
<g
   id="g18"
   transform="translate(-45.715395,-103.99995)">
</g>
<g
   id="g20"
   transform="translate(-45.715395,-103.99995)">
</g>
<g
   id="g22"
   transform="translate(-45.715395,-103.99995)">
</g>
<g
   id="g24"
   transform="translate(-45.715395,-103.99995)">
</g>
<g
   id="g26"
   transform="translate(-45.715395,-103.99995)">
</g>
<g
   id="g28"
   transform="translate(-45.715395,-103.99995)">
</g>
<g
   id="g30"
   transform="translate(-45.715395,-103.99995)">
</g>
<g
   id="g32"
   transform="translate(-45.715395,-103.99995)">
</g>
<g
   id="g34"
   transform="translate(-45.715395,-103.99995)">
</g>
<g
   id="g36"
   transform="translate(-45.715395,-103.99995)">
</g>
<g
   id="g38"
   transform="translate(-45.715395,-103.99995)">
</g>
<g
   id="g40"
   transform="translate(-45.715395,-103.99995)">
</g>
</svg>
